source/img/icon-home.svg

<svg fill="none" height="24" viewBox="0 0 24 24" width="24" xmlns="http://www.w3.org/2000/svg" xmlns:xlink="http://www.w3.org/1999/xlink"><clipPath id="a"><path d="m0 0h24v24h-24z"/></clipPath><g clip-path="url(#a)"><path d="m23.4 10.392c-.0007-.0006-.0012-.0013-.0018-.0018l-9.7901-9.789796c-.4173-.417481-.9721-.647279-1.5623-.647279-.5901 0-1.1449.229798-1.5624.647279l-9.78501 9.784796c-.003296.0033-.006775.0068-.009888.0101-.856935.8619-.85547 2.2602.004212 3.1199.392766.393.911316.6204 1.465946.6444.0227.0022.04541.0033.0683.0033h.39001v7.2045c0 1.4258 1.16016 2.5858 2.58601 2.5858h3.8302c.38837 0 .70313-.315.70313-.7032v-5.6484c0-.6506.52939-1.1798 1.17989-1.1798h2.2592c.6506 0 1.1798.5292 1.1798 1.1798v5.6484c0 .3882.3147.7032.7031.7032h3.8302c1.426 0 2.586-1.16 2.586-2.5858v-7.2045h.3618c.59 0 1.1448-.2298 1.5625-.6475.8605-.861.8609-2.2619.0012-3.1234zm-.9957 2.1291c-.1518.1518-.3536.2355-.568.2355h-1.0649c-.3884 0-.7032.3148-.7032.7031v7.9077c0 .6503-.5291 1.1795-1.1797 1.1795h-3.1271v-4.9453c0-1.4258-1.16-2.586-2.586-2.586h-2.2592c-1.42598 0-2.58614 1.1602-2.58614 2.586v4.9453h-3.12708c-.65039 0-1.17975-.5292-1.17975-1.1795v-7.9077c0-.3883-.31476-.7031-.70313-.7031h-1.04663c-.01099-.0007-.02179-.0013-.03296-.0014-.20948-.0037-.40595-.0868-.55317-.2342-.31311-.3131-.31311-.8227 0-1.136.00019 0 .00019-.0002.00037-.0004l.00055-.0005 9.78974-9.78943c.1516-.1518.3532-.23529.5678-.23529.2144 0 .416.08349.5678.23529l9.7876 9.78733c.0015.0015.0031.003.0046.0044.3114.3137.3109.8222-.0015 1.1347z" fill="#397dff"/></g></svg>

<svg width="24" height="24" viewBox="0 0 24 24" fill="none" xmlns="http://www.w3.org/2000/svg">
<g clip-path="url(#clip0)">
<path d="M23.4 10.392C23.3993 10.3914 23.3988 10.3907 23.3982 10.3902L13.6081 0.600404C13.1908 0.182923 12.636 -0.046875 12.0458 -0.046875C11.4557 -0.046875 10.9009 0.182923 10.4834 0.600404L0.69839 10.3852C0.695094 10.3885 0.691615 10.392 0.688502 10.3953C-0.168433 11.2572 -0.166968 12.6555 0.692714 13.5152C1.08548 13.9082 1.60403 14.1356 2.15866 14.1596C2.18136 14.1618 2.20407 14.1629 2.22696 14.1629H2.61697V21.3674C2.61697 22.7932 3.77713 23.9532 5.20298 23.9532H9.03318C9.42155 23.9532 9.73631 23.6382 9.73631 23.25V17.6016C9.73631 16.951 10.2657 16.4218 10.9162 16.4218H13.1754C13.826 16.4218 14.3552 16.951 14.3552 17.6016V23.25C14.3552 23.6382 14.6699 23.9532 15.0583 23.9532H18.8885C20.3145 23.9532 21.4745 22.7932 21.4745 21.3674V14.1629H21.8363C22.4263 14.1629 22.9811 13.9331 23.3988 13.5154C24.2593 12.6544 24.2597 11.2535 23.4 10.392ZM22.4043 12.5211C22.2525 12.6729 22.0507 12.7566 21.8363 12.7566H20.7714C20.383 12.7566 20.0682 13.0714 20.0682 13.4597V21.3674C20.0682 22.0177 19.5391 22.5469 18.8885 22.5469H15.7614V17.6016C15.7614 16.1758 14.6014 15.0156 13.1754 15.0156H10.9162C9.49022 15.0156 8.33006 16.1758 8.33006 17.6016V22.5469H5.20298C4.55259 22.5469 4.02323 22.0177 4.02323 21.3674V13.4597C4.02323 13.0714 3.70847 12.7566 3.3201 12.7566H2.27347C2.26248 12.7559 2.25168 12.7553 2.24051 12.7552C2.03103 12.7515 1.83456 12.6684 1.68734 12.521C1.37423 12.2079 1.37423 11.6983 1.68734 11.385C1.68753 11.385 1.68753 11.3848 1.68771 11.3846L1.68826 11.3841L11.478 1.59467C11.6296 1.44287 11.8312 1.35938 12.0458 1.35938C12.2602 1.35938 12.4618 1.44287 12.6136 1.59467L22.4012 11.382C22.4027 11.3835 22.4043 11.385 22.4058 11.3864C22.7172 11.7001 22.7167 12.2086 22.4043 12.5211Z" fill="#397DFF"/>
</g>
<defs>
<clipPath id="clip0">
<rect width="24" height="24" fill="white"/>
</clipPath>
</defs>
</svg>
